X: 17459
T: Highlandman Who Kissed His Granny, The
R: reel
M: 4/4
K: Adorian
cgge g3e|cgge dBGB|cgge g3e|afge dBGB|
cgge g3e|cgge dBGB|cgge g2 eg|afge dB B2||
Acec Acec|Acec d2 BG|Acec ABcd|afge dBGB|
Acec Acec|Acec dBGB|Acec ABcd|egge dBGB||

